hero/solid/ellipsis-vertical.svg

<svg width="24" height="24" viewBox="0 0 24 24" fill="none" xmlns="http://www.w3.org/2000/svg">
<path fill-rule="evenodd" clip-rule="evenodd" d="M10.5 6C10.5 5.17157 11.1716 4.5 12 4.5C12.8284 4.5 13.5 5.17157 13.5 6C13.5 6.82843 12.8284 7.5 12 7.5C11.1716 7.5 10.5 6.82843 10.5 6ZM10.5 12C10.5 11.1716 11.1716 10.5 12 10.5C12.8284 10.5 13.5 11.1716 13.5 12C13.5 12.8284 12.8284 13.5 12 13.5C11.1716 13.5 10.5 12.8284 10.5 12ZM10.5 18C10.5 17.1716 11.1716 16.5 12 16.5C12.8284 16.5 13.5 17.1716 13.5 18C13.5 18.8284 12.8284 19.5 12 19.5C11.1716 19.5 10.5 18.8284 10.5 18Z" fill="#0F172A"/>
</svg>

<svg viewBox="0 0 24 24" xmlns="http://www.w3.org/2000/svg"><path fill-rule="evenodd" d="M10.5 6v0c0-.83.67-1.5 1.5-1.5 .82 0 1.5.67 1.5 1.5v0c0 .82-.68 1.5-1.5 1.5 -.83 0-1.5-.68-1.5-1.5Zm0 6v0c0-.83.67-1.5 1.5-1.5 .82 0 1.5.67 1.5 1.5v0c0 .82-.68 1.5-1.5 1.5 -.83 0-1.5-.68-1.5-1.5Zm0 6v0c0-.83.67-1.5 1.5-1.5 .82 0 1.5.67 1.5 1.5v0c0 .82-.68 1.5-1.5 1.5 -.83 0-1.5-.68-1.5-1.5Z"/></svg>
